X: 5
T: Cooley's
Z: sebastian the m̈etapop
S: https://thesession.org/tunes/1#setting20960
R: reel
M: 4/4
L: 1/8
K: Edor
eBBA ~B2B2|~B2AB dBAG|FDAD BDAD|EDFA BAFB|
eBBA ~B2Bc|B2AB defA|~A2eA dBAF|1DEFD ~E2E2:|2DEFD ~e2e2||
eB~B2 eBgB|eB~B2 gedB|A2FA DAFA|~A2FA Beed|
e2~A2 eage|dBAB defA|~A2e2 dBAF|1DEfd ~e2e2:|2DEFD ~E2E2||
